!!!!SEGMENT: pl-wn--sd-xvi-o-273_anonim--kancjonal-zamoyskich-psalm-dawidow-lxxxv-inclina-domine.krn
!!!cenid: 15xx:828
!!!COM: Anonim
!!!COM-rismID: pe30004985
!!!CDT:
!!!CNT:
!!!GTL: Kancjonał Zamoyskich
!!!OTL: Psalm Dawidów LXXXV/Inclina Domine
!!!PDT: 1558
!!!AGN:
!!!SMS-siglum: PL-Wn
!!!SMS-shelfmark: SD XVI.O.273
!!!SMS-shelfwork: G
!!!SMS-variant:
!!!SMS-altvar:
!!!NIFC-rismSourceID: 990072220
!!!NIFC-rismChildID: 990072220
!!!NIFC-islandoraID: none
!!!URL-pdf-islandora:
!!!URL-scan: https://polona.pl/item/psalm-dawidow-lxxxv-inclina-domine-aurem-tuam-etc,MjYzMzY4/4 @EN{Scan on Polona} @PL{Skany w portalu Polona}
!!!IIIF: https://polona.pl/iiif/item/MjYzMzY4/manifest.json
!!!ONB-nifc: UWAGA: proszę zapisywać tylko teksty występujące bezpośrednio pod nutami
!!!AIN: 1 alto 1 bass 1 soprn 1 tenor
!!!key: g:dor
**kern	**text	**mod-text	**text	**mod-text	**kern	**text	**mod-text	**text	**mod-text	**kern	**text	**mod-text	**text	**mod-text	**kern	**text	**mod-text	**text	**mod-text
*part4	*part4	*part4	*part4	*part4	*part3	*part3	*part3	*part3	*part3	*part2	*part2	*part2	*part2	*part2	*part1	*part1	*part4	*part4	*part4
*staff4	*staff4	*staff4	*staff4	*staff4	*staff3	*staff3	*staff3	*staff3	*staff3	*staff2	*staff2	*staff2	*staff2	*staff2	*staff1	*staff1	*staff4	*staff4	*staff4
*>[A,A,B,B]	*	*	*	*	*>[A,A,B,B]	*	*	*	*	*>[A,A,B,B]	*	*	*	*	*>[A,A,B,B]	*	*	*	*
*>A	*	*	*	*	*>A	*	*	*	*	*>A	*	*	*	*	*>A	*	*	*	*
*I"BASS.	*	*	*	*	*I"TENOR.	*	*	*	*	*I"ALT.	*	*	*	*	*I"[CANTVS.]	*	*	*	*
*mI"Basso	*	*	*	*	*mI"Tenore	*	*	*	*	*mI"Alto	*	*	*	*	*mI"Soprano	*	*	*	*
*I'B	*	*	*	*	*I'T	*	*	*	*	*I'A	*	*	*	*	*I'S	*	*	*	*
*Ibass	*	*	*	*	*Itenor	*	*	*	*	*Ialto	*	*	*	*	*Isoprn	*	*	*	*
*clefF3	*	*	*	*	*clefC3	*	*	*	*	*clefC3	*	*	*	*	*clefG2	*	*	*	*
*mclefF4	*	*	*	*	*mclefGv2	*	*	*	*	*mclefG2	*	*	*	*	*mclefG2	*	*	*	*
*k[b-]	*	*	*	*	*k[b-]	*	*	*	*	*k[b-]	*	*	*	*	*k[b-]	*	*	*	*
*g:dor	*	*	*	*	*g:dor	*	*	*	*	*g:dor	*	*	*	*	*g:dor	*	*	*	*
*M2/1	*	*	*	*	*M2/1	*	*	*	*	*M2/1	*	*	*	*	*M2/1	*	*	*	*
*met(C|)	*	*	*	*	*met(C|)	*	*	*	*	*met(C|)	*	*	*	*	*met()	*	*	*	*
*mmet(c|)	*	*	*	*	*mmet(c|)	*	*	*	*	*mmet(c|)	*	*	*	*	*mmet(c|)	*	*	*	*
=1-	=1-	=1-	=1-	=1-	=1-	=1-	=1-	=1-	=1-	=1-	=1-	=1-	=1-	=1-	=1-	=1-	=1-	=1-	=1-
!!LO:TX:a:t=P:problem:w źródle wszystkie caudy po środku
*	*	*	*	*	*	*	*	*	*	*	*	*	*	*	*color:grey	*	*	*	*
*xywh-#6:2788,454,2196,756	*	*	*	*	*xywh-#6:750,456,1909,702	*	*	*	*	*xywh-#5:2844,406,2233,724	*	*	*	*	*	*	*	*	*
!	!	!	!	!	!	!	!	!	!	!	!	!	!	!	!LO:TX:a:t=P:problem:w źródle brak partii Cantus	!	!	!	!
!	!	!	!	!	!	!	!	!	!	!	!	!	!	!	!LO:MO:mod=0a	!	!	!	!
1D	.	Na-	.	A-	1d	.	Na-	.	A-	1f	.	Na-	.	A-	0ryy	.	Na-	.	A-
1D	.	-kłoń	.	-bo-	1d	.	-kłoń	.	-bo-	1f	.	-kłoń	.	-bo-	.	.	.	.	.
=2-	=2-	=2-	=2-	=2-	=2-	=2-	=2-	=2-	=2-	=2-	=2-	=2-	=2-	=2-	=2-	=2-	=2-	=2-	=2-
!	!	!	!	!	!	!	!	!	!	!	!	!	!	!	!LO:MO:mod=1g	!	!	!	!
0G	.	Pa-	.	-wiem	2.B-/	.	Pa-	.	-wiem	1d	.	Pa-	.	-wiem	0ryy	.	-kłoń	.	-bo-
.	.	.	.	.	4c/	.	.	.	.	.	.	.	.	.	.	.	.	.	.
!	!	!	!	!	!	!	!	!	!	!	!	!	!	!	!LO:MO:null:mod=1b-	!	!	!	!
.	.	.	.	.	2d\	.	.	.	.	2g\	.	.	.	.	.	.	Pa-	.	-wiem
.	.	.	.	.	2e\	.	-nie	.	.	2g\	.	-nie	.	nędz-	.	.	.	.	.
=3-	=3-	=3-	=3-	=3-	=3-	=3-	=3-	=3-	=3-	=3-	=3-	=3-	=3-	=3-	=3-	=3-	=3-	=3-	=3-
!	!	!	!	!	!	!	!	!	!	!	!	!	!	!	!LO:MO:mod=2a	!	!	!	!
2F\	.	-nie	.	nędz-	2f\	.	ku	.	nędz-	2c/	.	ku	.	-ny	0ryy	.	-nie	.	nędz-
!	!	!	!	!	!	!	!	!	!	!	!	!	!	!	!LO:MO:null:mod=2g	!	!	!	!
2G\	.	ku	.	-ny	2d\	.	mnie	.	-ny	4B-/	.	mnie	.	i	.	.	ku	.	-ny
.	.	.	.	.	.	.	.	.	.	4c/	.	.	.	.	.	.	.	.	.
!	!	!	!	!	!	!	!	!	!	!	!	!	!	!	!LO:MO:null:mod=1f	!	!	!	!
2D/	.	mnie	.	i	1.d	.	u-	.	i	4d\	.	.	.	.	.	.	mnie	.	i
.	.	.	.	.	.	.	.	.	.	4e\	.	.	.	.	.	.	.	.	.
1B-\	.	u-	.	u-	.	.	.	.	u-	2f\	.	.	.	.	.	.	.	.	.
=4-	=4-	=4-	=4-	=4-	=4-	=4-	=4-	=4-	=4-	=4-	=4-	=4-	=4-	=4-	=4-	=4-	=4-	=4-	=4-
!	!	!	!	!	!	!	!	!	!	!	!	!	!	!	!LO:MO:mod=2g	!	!	!	!
.	.	.	.	.	.	.	.	.	.	2d\	.	u-	.	u-	0ryy	.	u-	.	u-
!	!	!	!	!	!	!	!	!	!	!	!	!	!	!	!LO:MO:null:mod=2a	!	!	!	!
2A\	.	-cho	.	-tra-	2c/	.	.	.	u-	2.f\	.	-cho	.	-tra-	.	.	-cho	.	-tra-
!	!	!	!	!	!	!	!	!	!	!	!	!	!	!	!LO:MO:null:mod=1b-	!	!	!	!
1G	.	Two-	.	-pio-	2.B-/	.	-cho	.	-tra-	.	.	.	.	.	.	.	Two-	.	-pio-
.	.	.	.	.	.	.	.	.	.	4e\	.	.	.	.	.	.	.	.	.
.	.	.	.	.	.	.	.	.	.	2e\	.	Two-	.	-pio-	.	.	.	.	.
.	.	.	.	.	4c/	.	.	.	.	.	.	.	.	.	.	.	.	.	.
=5-	=5-	=5-	=5-	=5-	=5-	=5-	=5-	=5-	=5-	=5-	=5-	=5-	=5-	=5-	=5-	=5-	=5-	=5-	=5-
!LO:SIC:v:t=custos D	!	!	!	!	!	!	!	!	!	!LO:SIC:v:t=custos f	!	!	!	!	!LO:MO:mod=1a	!	!	!	!
1F	.	-je	.	-ny	2d\	.	Two-	.	-pio-	1f	.	-je	.	-ny	0ryy	.	-je	.	-ny
!	!	!	!	!	!LO:SIC:v:t=custos d	!	!	!	!	!	!	!	!	!	!	!	!	!	!
.	.	.	.	.	2c/	.	-je	.	-ny	.	.	.	.	.	.	.	.	.	.
!LO:LB:g=original	!	!	!	!	!LO:LB:g=original	!	!	!	!	!LO:LB:g=original	!	!	!	!	!	!	!	!	!
!LO:MO:mod=*null:null	!	!	!	!	!	!	!	!	!	!	!	!	!	!	!	!	!	!	!
*clefF4	*	*	*	*	*	*	*	*	*	*	*	*	*	*	*	*	*	*	*
*xywh-#6:2808,1191,1879,465	*	*	*	*	*xywh-#6:804,1143,1865,460	*	*	*	*	*xywh-#5:2844,1092,1782,460	*	*	*	*	*	*	*	*	*
!	!	!	!	!	!	!	!	!	!	!	!	!	!	!	!LO:MO:null:mod=2r	!	!	!	!
2r	.	.	.	.	2r	.	.	.	.	2r	.	.	.	.	.	.	.	.	.
!	!	!	!	!	!	!	!	!	!	!	!	!	!	!	!LO:MO:null:mod=2a	!	!	!	!
2D/	.	wy-	.	je-	2d\	.	wy-	.	je-	2f\	.	wy-	.	je-	.	.	wy-	.	je-
=6-	=6-	=6-	=6-	=6-	=6-	=6-	=6-	=6-	=6-	=6-	=6-	=6-	=6-	=6-	=6-	=6-	=6-	=6-	=6-
!	!	!	!	!	!	!	!	!	!	!	!	!	!	!	!LO:MO:mod=1b-	!	!	!	!
1G	.	-słu-	.	-stem	1d	.	-słu-	.	-stem	1g	.	-słu-	.	-stem	0ryy	.	-słu-	.	-stem
!	!	!	!	!	!	!	!	!	!	!	!	!	!	!	!LO:MO:null:mod=2g	!	!	!	!
2C/	.	-chaj	.	pra-	2c/	.	-chaj	.	pra-	2e\	.	-chaj	.	pra-	.	.	-chaj	.	pra-
!	!	!	!	!	!	!	!	!	!	!	!	!	!	!	!LO:MO:null:mod=2a	!	!	!	!
2F\	.	ża-	.	-wie	2c/	.	ża-	.	-wie	2f\	.	ża-	.	-wie	.	.	ża-	.	-wie
=7-	=7-	=7-	=7-	=7-	=7-	=7-	=7-	=7-	=7-	=7-	=7-	=7-	=7-	=7-	=7-	=7-	=7-	=7-	=7-
!	!	!	!	!	!	!	!	!	!	!	!	!	!	!	!LO:MO:mod=1a	!	!	!	!
1F	.	-ło-	.	ze-	2.f\	.	-ło-	.	ze-	1c	.	-ło-	.	ze-	0ryy	.	-ło-	.	ze-
.	.	.	.	.	4e\	.	.	.	.	.	.	.	.	.	.	.	.	.	.
!	!	!	!	!	!	!	!	!	!	!	!	!	!	!	!LO:MO:null:mod=2f	!	!	!	!
2BB-/	.	-sne	.	-wsząd	2d\	.	-sne	.	-wsząd	2f\	.	-sne	.	-wsząd	.	.	-sne	.	-wsząd
!	!	!	!	!	!	!	!	!	!	!	!	!	!	!	!LO:MO:null:mod=2.a	!	!	!	!
1F\	.	pro-	.	o-	1c\	.	pro-	.	o-	1f\	.	pro-	.	o-	.	.	pro-	.	o-
.	.	.	.	.	.	.	.	.	.	.	.	.	.	.	.	.	.	.	.
=8-	=8-	=8-	=8-	=8-	=8-	=8-	=8-	=8-	=8-	=8-	=8-	=8-	=8-	=8-	=8-	=8-	=8-	=8-	=8-
!	!	!	!	!	!	!	!	!	!	!	!	!	!	!	!LO:MO:mod=.	!	!	!	!
.	.	.	.	.	.	.	.	.	.	.	.	.	.	.	0ryy	.	.	.	.
!	!	!	!	!	!	!	!	!	!	!	!	!	!	!	!LO:MO:null:mod=4g	!	!	!	!
.	.	.	.	.	.	.	.	.	.	.	.	.	.	.	.	.	.	.	.
!	!	!	!	!	!	!	!	!	!	!	!	!	!	!	!LO:MO:null:mod=1g	!	!	!	!
2G\	.	-śby	.	-pu-	2B-/	.	-śby	.	-pu-	2d\	.	-śby	.	-pu-	.	.	-śby	.	-pu-
1D	.	mo-	.	-szczo-	1A	.	mo-	.	-szczo-	1d	.	mo-	.	-szczo-	.	.	.	.	.
!	!	!	!	!	!	!	!	!	!	!	!	!	!	!	!LO:MO:null:mod=2f#i	!	!	!	!
.	.	.	.	.	.	.	.	.	.	.	.	.	.	.	.	.	mo-	.	-szczo-
=10-	=10-	=10-	=10-	=10-	=10-	=10-	=10-	=10-	=10-	=10-	=10-	=10-	=10-	=10-	=10-	=10-	=10-	=10-	=10-
!LO:SIC:v:t=custos g	!	!	!	!	!LO:SIC:v:t=custos d	!	!	!	!	!LO:SIC:v:t=custos B-	!	!	!	!	!LO:MO:mod=1g	!	!	!	!
1GG	.	-je.	.	-ny.	1G	.	-je.	.	-ny.	1d	.	-je.	.	-ny.	1ryy	.	-je.	.	-ny.
!LO:LB:g=original	!	!	!	!	!LO:LB:g=original	!	!	!	!	!LO:LB:g=original	!	!	!	!	!	!	!	!	!
=:|!	=:|!	=:|!	=:|!	=:|!	=:|!	=:|!	=:|!	=:|!	=:|!	=:|!	=:|!	=:|!	=:|!	=:|!	=:|!	=:|!	=:|!	=:|!	=:|!
*>B	*	*	*	*	*>B	*	*	*	*	*>B	*	*	*	*	*>B	*	*	*	*
!LO:MO:mod=*null:null	!	!	!	!	!	!	!	!	!	!	!	!	!	!	!	!	!	!	!
*clefF3	*	*	*	*	*	*	*	*	*	*	*	*	*	*	*	*	*	*	*
*xywh-#6:2818,1607,1879,460	*	*	*	*	*xywh-#6:799,1588,1860,450	*	*	*	*	*xywh-#5:2829,1503,1846,489	*	*	*	*	*	*	*	*	*
!	!	!	!	!	!	!	!	!	!	!	!	!	!	!	!LO:MO:mod=2r	!	!	!	!
2r	.	.	.	.	2r	.	.	.	.	2r	.	.	.	.	1ryy	.	.	.	.
!	!	!	!	!	!	!	!	!	!	!	!	!	!	!	!LO:MO:null:mod=2g	!	!	!	!
2G\	.	Racz	.	.	2d\	.	Racz	.	.	2B-/	.	Racz	.	.	.	.	Racz	.	.
=11-	=11-	=11-	=11-	=11-	=11-	=11-	=11-	=11-	=11-	=11-	=11-	=11-	=11-	=11-	=11-	=11-	=11-	=11-	=11-
!	!	!	!	!	!	!	!	!	!	!	!	!	!	!	!LO:MO:mod=2g	!	!	!	!
2B-\	.	być	.	.	2B-/	.	być	.	.	2d\	.	być	.	.	0ryy	.	być	.	.
!	!	!	!	!	!	!	!	!	!	!	!	!	!	!	!LO:MO:null:mod=2f	!	!	!	!
2A\	.	stra-	.	.	2c/	.	stra-	.	.	2c/	.	stra-	.	.	.	.	stra-	.	.
!	!	!	!	!	!	!	!	!	!	!	!	!	!	!	!LO:MO:null:mod=1b-	!	!	!	!
1G	.	-żem	.	.	2d\	.	-żem	.	.	2B-/	.	-żem	.	.	.	.	-żem	.	.
.	.	.	.	.	1d	.	du-	.	.	4G/	.	du-	.	.	.	.	.	.	.
.	.	.	.	.	.	.	.	.	.	4A/	.	.	.	.	.	.	.	.	.
=12-	=12-	=12-	=12-	=12-	=12-	=12-	=12-	=12-	=12-	=12-	=12-	=12-	=12-	=12-	=12-	=12-	=12-	=12-	=12-
!	!	!	!	!	!	!	!	!	!	!	!	!	!	!	!LO:MO:mod=2b-	!	!	!	!
2G\	.	du-	.	.	.	.	.	.	.	4B-/	.	.	.	.	0ryy	.	du-	.	.
.	.	.	.	.	.	.	.	.	.	4c/	.	.	.	.	.	.	.	.	.
!	!	!	!	!	!	!	!	!	!	!	!	!	!	!	!LO:MO:null:mod=2a	!	!	!	!
2F\	.	-sze	.	.	2d\	.	-sze	.	.	2.d\	.	-sze	.	.	.	.	-sze	.	.
!	!	!	!	!	!	!	!	!	!	!	!	!	!	!	!LO:MO:null:mod=1g	!	!	!	!
1E	.	mo-	.	.	2.G/	.	mo-	.	.	.	.	.	.	.	.	.	mo-	.	.
!	!	!	!	!	!	!	!	!	!	!LO:SIC:s=4c#i	!	!	!	!	!	!	!	!	!
.	.	.	.	.	.	.	.	.	.	4c/	.	.	.	.	.	.	.	.	.
!	!	!	!	!	!	!	!	!	!	!LO:SIC:s=2c#i	!	!	!	!	!	!	!	!	!
.	.	.	.	.	.	.	.	.	.	2c/	.	mo-	.	.	.	.	.	.	.
.	.	.	.	.	4A/	.	.	.	.	.	.	.	.	.	.	.	.	.	.
=13-	=13-	=13-	=13-	=13-	=13-	=13-	=13-	=13-	=13-	=13-	=13-	=13-	=13-	=13-	=13-	=13-	=13-	=13-	=13-
!LO:SIC:v:t=custos d	!	!	!	!	!	!	!	!	!	!LO:SIC:v:t=custos d	!	!	!	!	!LO:MO:mod=1f	!	!	!	!
1D	.	-jej	.	.	2B-/	.	.	.	.	1d	.	-jej	.	.	0ryy	.	-jej	.	.
.	.	.	.	.	2A/	.	-jej	.	.	.	.	.	.	.	.	.	.	.	.
!LO:LB:g=original	!	!	!	!	!	!	!	!	!	!LO:LB:g=original	!	!	!	!	!	!	!	!	!
!	!	!	!	!	!	!	!	!	!	!LO:MO:mod=*null:null	!	!	!	!	!	!	!	!	!
*	*	*	*	*	*	*	*	*	*	*clefC2	*	*	*	*	*	*	*	*	*
*xywh-#6:2796,2043,1904,420	*	*	*	*	*xywh-#6:766,1992,1889,405	*	*	*	*	*xywh-#5:2790,1937,1875,475	*	*	*	*	*	*	*	*	*
!	!	!	!	!	!	!	!	!	!	!	!	!	!	!	!LO:MO:null:mod=2r	!	!	!	!
2r	.	.	.	.	2r	.	.	.	.	2r	.	.	.	.	.	.	.	.	.
!	!	!	!	!	!	!	!	!	!	!	!	!	!	!	!LO:MO:null:mod=2f	!	!	!	!
2D/	.	wsza-	.	.	2A/	.	wsza-	.	.	2d\	.	wsza-	.	.	.	.	wsza-	.	.
=14-	=14-	=14-	=14-	=14-	=14-	=14-	=14-	=14-	=14-	=14-	=14-	=14-	=14-	=14-	=14-	=14-	=14-	=14-	=14-
!	!	!	!	!	!	!	!	!	!	!	!	!	!	!	!LO:MO:mod=1g	!	!	!	!
1G	.	-kem	.	.	1B-	.	-kem	.	.	2d\	.	-kem	.	.	0ryy	.	-kem	.	.
.	.	.	.	.	.	.	.	.	.	2e\	.	.	.	.	.	.	.	.	.
!	!	!	!	!	!	!	!	!	!	!	!	!	!	!	!LO:MO:null:mod=1a	!	!	!	!
1F	.	ja	.	.	1c	.	ja	.	.	1f	.	ja	.	.	.	.	ja	.	.
=15-	=15-	=15-	=15-	=15-	=15-	=15-	=15-	=15-	=15-	=15-	=15-	=15-	=15-	=15-	=15-	=15-	=15-	=15-	=15-
!	!	!	!	!	!	!	!	!	!	!	!	!	!	!	!LO:MO:mod=1b-	!	!	!	!
1B-	.	w_o-	.	.	1d	.	w_o-	.	.	2f\	.	w_o-	.	.	0ryy	.	w_o-	.	.
.	.	.	.	.	.	.	.	.	.	4d/	.	-pie-	.	.	.	.	.	.	.
.	.	.	.	.	.	.	.	.	.	4e/	.	.	.	.	.	.	.	.	.
!	!	!	!	!	!	!	!	!	!	!	!	!	!	!	!LO:MO:null:mod=2.a	!	!	!	!
2.F/	.	-pie-	.	.	2c/	.	-pie-	.	.	4f\	.	.	.	.	.	.	-pie-	.	.
.	.	.	.	.	.	.	.	.	.	4g\	.	.	.	.	.	.	.	.	.
.	.	.	.	.	2f\	.	.	.	.	1a	.	.	.	.	.	.	.	.	.
!	!	!	!	!	!	!	!	!	!	!	!	!	!	!	!LO:MO:null:mod=4b-	!	!	!	!
4G/	.	.	.	.	.	.	.	.	.	.	.	.	.	.	.	.	.	.	.
=16-	=16-	=16-	=16-	=16-	=16-	=16-	=16-	=16-	=16-	=16-	=16-	=16-	=16-	=16-	=16-	=16-	=16-	=16-	=16-
!	!	!	!	!	!	!	!	!	!	!	!	!	!	!	!LO:MO:mod=2cc	!	!	!	!
2A\	.	.	.	.	2e\	.	-ce	.	.	.	.	.	.	.	0ryy	.	.	.	.
!	!	!	!	!	!	!	!	!	!	!	!	!	!	!	!LO:MO:null:mod=1dd	!	!	!	!
2B-\	.	-ce	.	.	2d\	.	.	.	.	2g\	.	-ce	.	.	.	.	-ce	.	.
1A	.	Two-	.	.	1e	.	Two-	.	.	1a	.	Two-	.	.	.	.	.	.	.
!	!	!	!	!	!	!	!	!	!	!	!	!	!	!	!LO:MO:null:mod=2cc#i	!	!	!	!
.	.	.	.	.	.	.	.	.	.	.	.	.	.	.	.	.	Two-	.	.
=17-	=17-	=17-	=17-	=17-	=17-	=17-	=17-	=17-	=17-	=17-	=17-	=17-	=17-	=17-	=17-	=17-	=17-	=17-	=17-
!LO:SIC:v:t=custos d	!	!	!	!	!LO:SIC:v:t=custos f	!	!	!	!	!	!	!	!	!	!LO:MO:mod=1dd	!	!	!	!
1D	.	-jej	.	.	1d	.	-jej	.	.	1f	.	-jej	.	.	0ryy	.	-jej	.	.
*xywh-#6:2791,2445,1919,435	*	*	*	*	*xywh-#6:756,2378,1909,455	*	*	*	*	*xywh-#5:2771,2359,1895,470	*	*	*	*	*	*	*	*	*
!LO:LB:g=original	!	!	!	!	!LO:LB:g=original	!	!	!	!	!	!	!	!	!	!LO:MO:null:mod=2r	!	!	!	!
2r	.	.	.	.	2r	.	.	.	.	2r	.	.	.	.	.	.	.	.	.
!	!	!	!	!	!	!	!	!	!	!LO:SIC:v:t=custos d	!	!	!	!	!LO:MO:null:mod=2a	!	!	!	!
2D/	.	a	.	.	2f\	.	a	.	.	2d/	.	a	.	.	.	.	a	.	.
!	!	!	!	!	!	!	!	!	!	!LO:LB:g=original	!	!	!	!	!	!	!	!	!
=18-	=18-	=18-	=18-	=18-	=18-	=18-	=18-	=18-	=18-	=18-	=18-	=18-	=18-	=18-	=18-	=18-	=18-	=18-	=18-
!	!	!	!	!	!	!	!	!	!	!	!	!	!	!	!LO:MO:mod=1a	!	!	!	!
2A\	.	wy-	.	.	2e\	.	wy-	.	.	2c/	.	wy-	.	.	0ryy	.	wy-	.	.
2D/	.	-swo-	.	.	2d\	.	-swo-	.	.	2f\	.	-swo-	.	.	.	.	.	.	.
!	!	!	!	!	!	!	!	!	!	!	!	!	!	!	!LO:MO:null:mod=1a	!	!	!	!
1A	.	-bodź	.	.	1c	.	-bodź	.	.	1e	.	-bodź	.	.	.	.	-swo-	.	.
=19-	=19-	=19-	=19-	=19-	=19-	=19-	=19-	=19-	=19-	=19-	=19-	=19-	=19-	=19-	=19-	=19-	=19-	=19-	=19-
!	!	!	!	!	!	!	!	!	!	!	!	!	!	!	!LO:MO:mod=1cc	!	!	!	!
1F	.	słu-	.	.	1f	.	słu-	.	.	1a	.	słu-	.	.	0ryy	.	-bodź	.	.
!	!	!	!	!	!	!	!	!	!	!	!	!	!	!	!LO:MO:null:mod=2b-	!	!	!	!
2G\	.	.	.	.	2d\	.	.	.	.	2g\	.	.	.	.	.	.	.	.	.
!	!	!	!	!	!	!	!	!	!	!	!	!	!	!	!LO:MO:null:mod=1a	!	!	!	!
2A\	.	.	.	.	2.f\	.	.	.	.	2c/	.	.	.	.	.	.	słu-	.	.
=20-	=20-	=20-	=20-	=20-	=20-	=20-	=20-	=20-	=20-	=20-	=20-	=20-	=20-	=20-	=20-	=20-	=20-	=20-	=20-
!	!	!	!	!	!	!	!	!	!	!	!	!	!	!	!LO:MO:mod=.	!	!	!	!
1B-	.	-gę	.	.	.	.	.	.	.	1d	.	-gę	.	.	0ryy	.	.	.	.
.	.	.	.	.	4e\	.	.	.	.	.	.	.	.	.	.	.	.	.	.
!	!	!	!	!	!	!	!	!	!	!	!	!	!	!	!LO:MO:null:mod=2g	!	!	!	!
.	.	.	.	.	1d\	.	-gę	.	.	.	.	.	.	.	.	.	-gę	.	.
!	!	!	!	!	!	!	!	!	!	!	!	!	!	!	!LO:MO:null:mod=1a	!	!	!	!
1A	.	swe-	.	.	.	.	.	.	.	1e	.	swe-	.	.	.	.	swe-	.	.
!	!	!	!	!	!LO:SIC:s=2c#i	!	!	!	!	!	!	!	!	!	!	!	!	!	!
.	.	.	.	.	2c/	.	swe-	.	.	.	.	.	.	.	.	.	.	.	.
=21-	=21-	=21-	=21-	=21-	=21-	=21-	=21-	=21-	=21-	=21-	=21-	=21-	=21-	=21-	=21-	=21-	=21-	=21-	=21-
!LO:SIC:v:t=custos g	!	!	!	!	!LO:SIC:v:t=custos d	!	!	!	!	!LO:SIC:v:t=custos g	!	!	!	!	!LO:MO:mod=1a	!	!	!	!
1D	.	-go	.	.	1d	.	-go	.	.	1f	.	-go	.	.	0ryy	.	-go	.	.
!LO:LB:g=original	!	!	!	!	!LO:LB:g=original	!	!	!	!	!LO:LB:g=original	!	!	!	!	!	!	!	!	!
!LO:MO:mod=*null:null	!	!	!	!	!	!	!	!	!	!LO:MO:mod=*null:null	!	!	!	!	!	!	!	!	!
*clefF4	*	*	*	*	*	*	*	*	*	*clefC3	*	*	*	*	*	*	*	*	*
*xywh-#6:2782,2846,1949,504	*	*	*	*	*xywh-#6:751,2824,1879,841	*	*	*	*	*xywh-#5:2760,2776,1915,1087	*	*	*	*	*	*	*	*	*
!	!	!	!	!	!	!	!	!	!	!	!	!	!	!	!LO:MO:null:mod=2r	!	!	!	!
2r	.	.	.	.	2r	.	.	.	.	2r	.	.	.	.	.	.	.	.	.
!	!	!	!	!	!	!	!	!	!	!	!	!	!	!	!LO:MO:null:mod=2b-	!	!	!	!
2G\	.	Bo-	.	.	2d\	.	Bo-	.	.	2g\	.	Bo-	.	.	.	.	Bo-	.	.
=22-	=22-	=22-	=22-	=22-	=22-	=22-	=22-	=22-	=22-	=22-	=22-	=22-	=22-	=22-	=22-	=22-	=22-	=22-	=22-
!	!	!	!	!	!	!	!	!	!	!	!	!	!	!	!LO:MO:mod=1b-	!	!	!	!
1G	.	-że	.	.	1g	.	-że	.	.	1d	.	-że	.	.	0ryy	.	-że	.	.
!	!	!	!	!	!	!	!	!	!	!	!	!	!	!	!LO:MO:null:mod=2g	!	!	!	!
2C/	.	mój	.	.	2e\	.	mój	.	.	2e\	.	mój	.	.	.	.	mój	.	.
!	!	!	!	!	!	!	!	!	!	!	!	!	!	!	!LO:MO:null:mod=2a	!	!	!	!
2F\	.	w_To-	.	.	2c/	.	w_To-	.	.	2f\	.	w_To-	.	.	.	.	w_To-	.	.
=23-	=23-	=23-	=23-	=23-	=23-	=23-	=23-	=23-	=23-	=23-	=23-	=23-	=23-	=23-	=23-	=23-	=23-	=23-	=23-
!	!	!	!	!	!	!	!	!	!	!	!	!	!	!	!LO:MO:mod=1a	!	!	!	!
1F	.	-bie	.	.	2.f\	.	-bie	.	.	1c	.	-bie	.	.	0ryy	.	-bie	.	.
.	.	.	.	.	4e\	.	.	.	.	.	.	.	.	.	.	.	.	.	.
!	!	!	!	!	!	!	!	!	!	!	!	!	!	!	!LO:MO:null:mod=2f	!	!	!	!
2BB-/	.	u-	.	.	2d\	.	u-	.	.	2f\	.	u-	.	.	.	.	u-	.	.
!	!	!	!	!	!	!	!	!	!	!	!	!	!	!	!LO:MO:null:mod=2.a	!	!	!	!
1F	.	-fa-	.	.	1c	.	-fa-	.	.	1f	.	-fa-	.	.	.	.	-fa-	.	.
.	.	.	.	.	.	.	.	.	.	.	.	.	.	.	.	.	.	.	.
=24-	=24-	=24-	=24-	=24-	=24-	=24-	=24-	=24-	=24-	=24-	=24-	=24-	=24-	=24-	=24-	=24-	=24-	=24-	=24-
!	!	!	!	!	!	!	!	!	!	!	!	!	!	!	!LO:MO:mod=.	!	!	!	!
.	.	.	.	.	.	.	.	.	.	.	.	.	.	.	0ryy	.	.	.	.
!	!	!	!	!	!	!	!	!	!	!	!	!	!	!	!LO:MO:null:mod=4g	!	!	!	!
.	.	.	.	.	.	.	.	.	.	.	.	.	.	.	.	.	.	.	.
!	!	!	!	!	!	!	!	!	!	!	!	!	!	!	!LO:MO:null:mod=1g	!	!	!	!
2G\	.	-ją-	.	.	2B-/	.	-ją-	.	.	2d\	.	-ją-	.	.	.	.	-ją-	.	.
1D	.	-ce-	.	.	1A	.	-ce-	.	.	1d	.	-ce-	.	.	.	.	.	.	.
!	!	!	!	!	!	!	!	!	!	!	!	!	!	!	!LO:MO:null:mod=2f#i	!	!	!	!
.	.	.	.	.	.	.	.	.	.	.	.	.	.	.	.	.	-ce-	.	.
=25-	=25-	=25-	=25-	=25-	=25-	=25-	=25-	=25-	=25-	=25-	=25-	=25-	=25-	=25-	=25-	=25-	=25-	=25-	=25-
!LO:SIC:s=0GG;	!	!	!	!	!LO:SIC:s=0G;	!	!	!	!	!LO:SIC:s=0d;	!	!	!	!	!LO:MO:null:mod=0g;	!	!	!	!
0BB-l	.	-go.	.	.	0Gl	.	-go.	.	.	0dl	.	-go.	.	.	0ryy	.	-go.	.	.
==	==	==	==	==	==	==	==	==	==	==	==	==	==	==	==	==	==	==	==
*-	*-	*-	*-	*-	*-	*-	*-	*-	*-	*-	*-	*-	*-	*-	*-	*-	*-	*-	*-
!!!system-decoration: [(*)]
!!LO:MO:ori
!!!RDF**kern: l = terminal long
!!LO:MO:mod
!! !!!RDF**kern: i = editorial accidental
!!LO:MO:end
!!!filter-modern: shed -e "s/TX(.*):t=P:/tx$1:t=P:/LG" | shed -e "s/^custos:/Xcustos:/I" | sic -sq | modori -m | autostem -r | tie -s | humtr -p | shed -e "s/-//B"
!!!ENC: Mateusz Solarz
!!!END: 2022-04-27
!!!ENC: Wojciech Jakubiak-Danek
!!!END: 2022-05-10
!!!ENC-modern: Andrzej Kubiczek
!!!END-modern: 2022-07-25
!!!ENC-iiif: Emilia Ziętek
!!!END-iiif: 2022-09-03
!!!YEC: Copyright 2022 Narodowy Instytut Fryderyka Chopina (https://polishscores.org)
!!!YEM: License CC-BY-4.0 (https://creativecommons.org/licenses/by/4.0)
